X: 1
T: Winchell's Falls
C: Noah VanNorstrand
S: Taught by Audrey Knuth @ Roaring Jelly zoom session 2020-10-13. Bowings and slurs are hers.
S: Tunes 'N Stuff with Audrey Knuth
S: https://drive.google.com/drive/folders/1yXGhj24P9IU-sNyqHq_582DajPWJPEqj
R: reel
Z: 2020 John Chambers <jc:trillian.mit.edu>
D: https://www.youtube.com/watch?v=Z3J0DkfXVX0
M: C|
L: 1/8
K: A
EF |\
"A"vAB cd e(uc BA) | "D"vF2 (uA2- AB) AF | "A"vE2 (uA2- AB) AE | "D"vF2 (uA2- AB) AF |
"A"vE2 c2 c(uB AE) | "D"vF2 (uA2- AB) AF | "A"EF A(uc "E"BA) GB |[1 "A"vA4- uA2 :|
[2 "A"vA4 |: (uAB) ce |\
"E"vB3 (c B2) AB | "A"c2 e6 | ("D"vfa2) (ua ab) af | "A"e2 (uc2- cB A2) |
"E"vB3 (c B2) AB | "F#m"c2 e2 cB AF | "A"EF A(uc "E"BA) GB |1 "A"A4 :|2 "A"A6 |]
